**kern	**kern
*part1	*part1
*staff2	*staff1
*I"Piano	*
*clefF4	*clefG2
*k[f#]	*k[f#]
*M2/4	*M2/4
=1	=1
2G	8gL 8b
.	8d
.	8g 8b
.	8dJ
=	=
4F#	8aL 8cc
.	8d
4G	8g 8b
.	8dJ
=	=
2D 2c	8f#L 8a
.	8d
.	8f# 8a
.	8dJ
=	=
2G 2B	8gL
.	8d
.	8g
.	8dJ
=	=
4c	8f#L 8a
.	8d
4B	8g
.	8dJ
=	=
4A	8f#L 8cc
.	8d
4G	8g 8b
.	8dJ
=	=
4C	8gL 8a
.	8e
4C#X	8g 8a
.	8eJ
=	=
2D	8f#L 8a
.	8d
.	8e 8g 8a
.	8c#XJ
=	=
*-	*-
!!!system-decoration: {(s1,s2)}
